!!!OTL:Weihnachtslied.
!!!OTL-incipit:STILL STILL STILL DIE AUGEN AUFGEMACHT
!!!COM: B. Widmann
!!!ARE: Europa, Mitteleuropa, Deutschland
!!!SCT: F0290
!!!TXL: @@DE
!!!YEM: Copyright 1995, estate of Helmut Schaffrath.
**kern	**text
*ICvox	*
*M2/4	*
*k[b-]	*
*F:	*
=1	=1
!LO:TX:a:t=Munter.	!
{8f	1._Still,
8r	.
8a	ſtill,
8r	.
=2	=2
4cc/	ſtill!
8r}	.
{8dd/	Die
=3	=3
8cc/	Au-
8a	-gen
8b-/	auf-
8g	-ge-
=4	=4
4f	-macht!
8r}	.
{8a	Wer
=5	=5
4g	will
4bn/	her-
=6	=6
4cc/	-ein?
8r}	.
{8a	Das
=7	=7
4g	Chriſt-
4bn/	-kind-
=8	=8
4cc/	-lein!
8r}	.
{8cc/	Es
=9	=9
8.dd/	iſt
16cc/	ja
8b-/	heut'
8a	die
=10	=10
4g	heil'-
4a	-ge
=11	=11
4b-/	Nacht;
8r}	.
{8g	es
=12	=12
8.cc/	iſt
16b-/	ja
8a	beut'
8g	die
=13	=13
4a	heil'-
4g	-ge
=14	=14
4f	Nacht!
4r;}	.
==	==
!!!AGN: Jugend - Lied, Weihnachten
!!!ONB: ESAC (Essen Associative Code) Database: FINK
!!!AMT: simple duple
!!!AIN: vox
!!!EED: Helmut Schaffrath
!!!EEV: 1.0
!!Text: C. Enslin
!!!source: Musikalischer Hausschatz der Deutschen. Eine Sammlung von über 1000 Liedern und Gesängen mit Singstimmen und Klavierbegleitung. Leipzig, Litterarisches Verlags-Haus.
!!!page: 173
!!!ENC: Anna Maria Matuszewska
!!!EEV: 2025/03/13
*-	*-
